packages/astro-components-stencil/src/icons/star-rate.svg

<svg width="24" height="24" viewBox="0 0 24 24" fill="none" xmlns="http://www.w3.org/2000/svg">
<path d="M12 15.0667L15.28 17.4533C15.8 17.84 16.5067 17.32 16.3067 16.7067L15.0534 12.8533L18.2934 10.5467C18.8267 10.1733 18.56 9.33335 17.9067 9.33335H13.9334L12.64 5.30668C12.44 4.69335 11.5734 4.69335 11.3734 5.30668L10.0667 9.33335H6.09335C5.44002 9.33335 5.17335 10.1733 5.70668 10.5467L8.94668 12.8533L7.69335 16.7067C7.49335 17.32 8.20002 17.8267 8.72002 17.4533L12 15.0667Z" fill="black"/>
</svg>

<svg xmlns="http://www.w3.org/2000/svg" viewBox="0 0 24 24"><g xmlns="http://www.w3.org/2000/svg" id="star-rate" fill-rule="nonzero">
            <path d="M12 15.067l3.28 2.386c.52.387 1.227-.133 1.027-.746l-1.254-3.854 3.24-2.306c.534-.374.267-1.214-.386-1.214h-3.974L12.64 5.307c-.2-.614-1.067-.614-1.267 0l-1.306 4.026H6.093c-.653 0-.92.84-.386 1.214l3.24 2.306-1.254 3.854c-.2.613.507 1.12 1.027.746L12 15.067z"/>
        </g></svg>
